flaticon/design/anchor.svg

<svg xmlns="http://www.w3.org/2000/svg" width="32" height="32" viewBox="0 0 24 24">
    <path d="M 20.453125 16.515625 L 4.121094 0.121094 C 4.007812 0.00390625 3.832031 -0.03125 3.679688 0.03125 C 3.527344 0.09375 3.425781 0.242188 3.425781 0.40625 L 3.425781 23.59375 C 3.425781 23.816406 3.609375 24 3.835938 24 L 6.273438 24 C 6.5 24 6.683594 23.816406 6.683594 23.59375 L 6.683594 7.21875 L 18.148438 18.8125 C 18.226562 18.890625 18.328125 18.933594 18.4375 18.933594 C 18.546875 18.933594 18.652344 18.890625 18.726562 18.816406 L 20.453125 17.089844 C 20.613281 16.929688 20.613281 16.671875 20.453125 16.515625 Z M 18.441406 17.953125 L 6.566406 5.941406 C 6.449219 5.828125 6.273438 5.789062 6.121094 5.851562 C 5.96875 5.914062 5.867188 6.066406 5.867188 6.230469 L 5.867188 23.1875 L 4.242188 23.1875 L 4.242188 1.390625 L 19.589844 16.800781 Z M 18.441406 17.953125"/>
</svg>

<svg xmlns="http://www.w3.org/2000/svg" width="32" height="32" viewBox="0 0 24 24">
    <path d="M20.453 16.516L4.121.12a.408.408 0 0 0-.695.285v23.188a.41.41 0 0 0 .41.406h2.437a.41.41 0 0 0 .41-.406V7.219l11.465 11.593a.41.41 0 0 0 .578.004l1.727-1.726a.403.403 0 0 0 0-.574zm-2.012 1.437L6.566 5.941a.417.417 0 0 0-.445-.09.413.413 0 0 0-.254.38v16.957H4.242V1.39L19.59 16.8zm0 0"/>
</svg>
